X:1
T:Al fin del mar
T:Benedetto Ferrari
T:Source : Musiche Varie a voce sola---Libro terzo---Venetia---B.Magni---1641. Editor : André Vierendeels (19/01/17).
T:Notes : Original clefs C4, F4 Editorial accidentals above the staff Original note values have been halved Figures in BC are notated in original print
T:Al fin del mar
T:©
T:©
T:©
C:Benedetto Ferrari
Z:©
%%score 1 2
L:1/8
Q:1/4=102
M:6/4
K:C
V:1 treble-8 nm="Tenor" snm="T"
V:2 bass nm="MusicXML Part"
V:1
 e2 e2 d2 d4 c2 | c4 c2 z2 fe dc | B4 B2 z2 gf ed | c4 B2 B4 BA | B2 B2 d2 e4 A2 | A6 G4 z2 | %6
w: Al fin del mar d'a-|mo- re scor- * * *|* si, scor- * * *|* s'i flut- ti vo-|ra- ci io giun- go'in|por- to,|
w: Non vi- bra piu'l mio|cie- lo lam- * * *|* pi, lam- * * *|* pi di cru- del-|tà, fol- go- * ri|d'i- re|
w: Ca- r'e a- ma- ta|brac- cia fa- * * *|* re, ra- * * *|* re l'uf- fi- cio|pur d'he- * dra te-|na- ce|
 z2 c2 G2 A2 d2 A2 | B2 g2 f2 _e6- | e6- e3 d- c2 | z2 z d_ef ed ef ed | _ed ef ed c2 c4- | %11
w: co- si va, co- si|va, chi'è _ co-|sin _ te _|è ben ac- cor- * * * * *|* * * * * * * to,|
w: co- si và co- si|và, chi sa fa-|* * re _|e chi fà di- * * * * *|* * * * * * * re,|
w: ben mi- o, ben mi-|o ri- no- nà'il|_ _ ca- so|di sal- * ma- * * * * *|* * * * * * * ce,|
[M:3/4] c6 :: z2 e3 e |[M:6/4] d3 d c2 c4 _B2 | _B A2 B c2 A3 A A2 | A4 fe e4 fg | ^c6 AG AB cA | %17
w: _|O che|ca- ro lan- guir _|al- * la sua don- na in|sen o che dol- ce mo-|rir pro- * * * * *|
w: _|O che|dol- ce pe- nar _|a- * * vin- to col suo|sol, che so- a- ve spi-|rar o- * * * * *|
w: _|non tar-|diam fu mio cor _|i- * * do- lo mio fe-|del, per mi- ra- col d'a-|mor sen- * * * * *|
 BA B^c de fe fe d2 | d2 A4- A2 A4- | A2 A2 Bc B2 z2 z2 | cd ed cB Ae fe dc | Bf gf ed cB cd ef | %22
w: var _ _ _ la _ mor- * * * *|te e _ ma-|* i ve- nir men,|e _ _ _ _ _ _ _ _ _ _ _|_ _ _ _ _ _ _ _ _ _ _ _|
w: ve _ _ _ la _ mor- * * * *|te'an- ci- * de|_ sen- za _ duol.|an- * * * * * * * * * * *||
w: za _ _ _ sor- * ter- * * * *|ra gir _ an-|* dia- mo in ciel.|an- * * * * * * * * * * *||
 d12- | d6- d2 d2 ef |[M:3/4] e2 z2 z2 :| %25
w: ma-|* * i ve- nir|men.|
w: ci-|* * de sen- za|duol|
w: dia-|* * mo in _|ciel.|
V:2
"^BC" C,4 D,2 E,6 | F,2 A,G, F,E, D,6 | G,2 DC B,A, G,4 F,2 | E,4 D,2 C,6 |"^6" B,,6 C,6 | %5
 D,6 G,,2 G,2 D,2 | E,6 F,6 | G,6 C,2 C2 G,2 | A,2 C2 E,2 ^F,6 | G,6 _A,6 | F,6 G,2 G,,4 | %11
[M:3/4] C,6 :: C,6 |[M:6/4]"^#" D,6 E,6 |"^#" F,6 E,6 |"^#" A,6 _B,6 | A,6 F,6 | G,6 A,6 | %18
"^#" D,6 _E,6 |"^4""^#""^#" D,2 D,,4 G,,A,, B,,A,, G,,F,, | E,,6 F,,6 |"^# 6" G,,6 A,,6 | %22
 G,,A,, B,,C, D,E, C,D, E,F, G,A, |"^4 3" F,G, A,B, CD G,2 G,,4 |[M:3/4] C,6 :| %25

